X:1
T: Gordon Stewart Forbes
C:Alexander Walker
R:Jig
Q:180
K:Em
M:6/8
L:1/16
|:D2|B,4E2 E2D2E2|G4A2 B4B2|d4B2 B2A2G2|F4D2 D4A,2|
B,4E2 E2D2E2|G4A2 B4B2|d4B2 B2A2B2|G4E2 E4B2|
e2B2e2 g4e2|d2e2d2 G4G2|B2G2B2 A2F2A2|G2E2G2 F2E2D2|
B,4E2 E2D2E2|G4A2 B4e2|e2d2B2 A2F2A2|G4E2 E4:|
